school/img/country/CSA.svg

<svg width="13" height="12" viewBox="0 0 13 12" fill="none" xmlns="http://www.w3.org/2000/svg">
<rect width="13" height="12" rx="2" fill="white"/>
<mask id="mask0" mask-type="alpha" maskUnits="userSpaceOnUse" x="0" y="0" width="13" height="12">
<rect width="13" height="12" rx="2" fill="white"/>
</mask>
<g mask="url(#mask0)">
<rect width="13" height="12" fill="#19BFBF"/>
<path fill-rule="evenodd" clip-rule="evenodd" d="M4.64278 9.63194C4.64278 9.61069 4.64481 9.58949 4.64884 9.56863L4.9523 7.99999L5.24755 6.47378C5.25695 6.4252 5.25541 6.37513 5.24305 6.32722L4.98482 5.32605C4.96391 5.24499 4.91326 5.17477 4.84295 5.12934L4.48568 4.89848C4.39065 4.83708 4.33325 4.73166 4.33325 4.61851V3.26223C4.33325 3.22109 4.34087 3.18031 4.35571 3.14195L4.64278 2.39999L4.86987 1.81305C4.91955 1.68464 5.04306 1.59999 5.18074 1.59999H6.47611C6.6602 1.59999 6.80944 1.74923 6.80944 1.93332V2.09047C6.80944 2.26141 6.94802 2.39999 7.11897 2.39999V2.39999C7.28991 2.39999 7.42849 2.53857 7.42849 2.70951V3.01851C7.42849 3.13166 7.48588 3.23708 7.58092 3.29848L8.51416 3.9015C8.60919 3.9629 8.66658 4.06833 8.66658 4.18147V4.73776C8.66658 4.77889 8.65897 4.81967 8.64413 4.85803L8.38716 5.52219C8.3674 5.57327 8.33535 5.61869 8.29386 5.65444L7.49169 6.34554C7.4502 6.38129 7.41815 6.42671 7.39839 6.4778L6.83954 7.92219C6.81978 7.97327 6.78773 8.01869 6.74624 8.05444L5.94407 8.74554C5.90258 8.78129 5.87053 8.82671 5.85077 8.8778L5.34425 10.1869C5.29457 10.3153 5.17106 10.4 5.03338 10.4H4.97611C4.79201 10.4 4.64278 10.2508 4.64278 10.0667V9.63194Z" fill="white"/>
</g>
</svg>

<svg width="13" height="12" fill="none" xmlns="http://www.w3.org/2000/svg"><rect width="13" height="12" rx="2" fill="#fff"/><mask id="a" maskUnits="userSpaceOnUse" x="0" y="0" width="13" height="12"><rect width="13" height="12" rx="2" fill="#fff"/></mask><g mask="url(#a)"><path fill="#19BFBF" d="M0 0h13v12H0z"/><path fill-rule="evenodd" clip-rule="evenodd" d="M4.643 9.632c0-.021.002-.043.006-.063L4.952 8l.296-1.526a.333.333 0 00-.005-.147l-.258-1a.333.333 0 00-.142-.198l-.357-.23a.333.333 0 01-.153-.28V3.262c0-.04.008-.082.023-.12l.287-.742.227-.587a.333.333 0 01.31-.213h1.296c.184 0 .333.15.333.333v.157c0 .171.139.31.31.31.17 0 .31.139.31.31v.309c0 .113.057.218.152.28l.933.603a.333.333 0 01.153.28v.556a.333.333 0 01-.023.12l-.257.664a.333.333 0 01-.093.132l-.802.692a.333.333 0 00-.094.132L6.84 7.922a.333.333 0 01-.094.132l-.802.692a.333.333 0 00-.093.132l-.507 1.309a.333.333 0 01-.31.213h-.058a.333.333 0 01-.333-.333v-.435z" fill="#fff"/></g></svg>
